assets/images/note.svg

<svg xmlns="http://www.w3.org/2000/svg" width="24" height="24" fill="#292d32" xmlns:v="https://vecta.io/nano"><path d="M16 22.75H8c-3.02 0-4.75-1.73-4.75-4.75V8.25C3.25 5.1 4.85 3.5 8 3.5c.41 0 .75.34.75.75a1.5 1.5 0 0 0 1.5 1.5h3.5a1.5 1.5 0 0 0 1.5-1.5c0-.41.34-.75.75-.75 3.15 0 4.75 1.6 4.75 4.75V18c0 3.02-1.73 4.75-4.75 4.75zM7.35 5.02c-1.58.13-2.6.84-2.6 3.23V18c0 2.22 1.03 3.25 3.25 3.25h8c2.22 0 3.25-1.03 3.25-3.25V8.25c0-2.39-1.02-3.09-2.6-3.23-.34 1.28-1.51 2.23-2.9 2.23h-3.5a2.97 2.97 0 0 1-2.12-.88 3.02 3.02 0 0 1-.78-1.35z"/><path d="M13.75 7.25h-3.5a2.97 2.97 0 0 1-2.12-.88 2.97 2.97 0 0 1-.88-2.12 3.01 3.01 0 0 1 3-3h3.5a2.97 2.97 0 0 1 2.12.88 2.97 2.97 0 0 1 .88 2.12 3.01 3.01 0 0 1-3 3zm-3.5-4.5a1.5 1.5 0 1 0 0 3h3.5a1.5 1.5 0 1 0 0-3h-3.5zm1.75 11H8c-.41 0-.75-.34-.75-.75s.34-.75.75-.75h4c.41 0 .75.34.75.75s-.34.75-.75.75zm4 4H8c-.41 0-.75-.34-.75-.75s.34-.75.75-.75h8c.41 0 .75.34.75.75s-.34.75-.75.75z"/></svg>

<svg width="24" height="24" viewBox="0 0 24 24" fill="none" xmlns="http://www.w3.org/2000/svg">
<path d="M16 22.75H8C4.98 22.75 3.25 21.02 3.25 18V8.25C3.25 5.1 4.85 3.5 8 3.5C8.41 3.5 8.75 3.84 8.75 4.25C8.75 4.65 8.91 5.03 9.19 5.31C9.47 5.59 9.85 5.75 10.25 5.75H13.75C14.58 5.75 15.25 5.08 15.25 4.25C15.25 3.84 15.59 3.5 16 3.5C19.15 3.5 20.75 5.1 20.75 8.25V18C20.75 21.02 19.02 22.75 16 22.75ZM7.34998 5.02C5.76998 5.15 4.75 5.86 4.75 8.25V18C4.75 20.22 5.78 21.25 8 21.25H16C18.22 21.25 19.25 20.22 19.25 18V8.25C19.25 5.86 18.23 5.16 16.65 5.02C16.31 6.3 15.14 7.25 13.75 7.25H10.25C9.45 7.25 8.70001 6.94 8.13 6.37C7.75 5.99 7.48998 5.53 7.34998 5.02Z" fill="#292D32"/>
<path d="M13.75 7.25H10.25C9.45 7.25 8.7 6.94 8.13 6.37C7.56 5.79999 7.25 5.05 7.25 4.25C7.25 2.6 8.6 1.25 10.25 1.25H13.75C14.55 1.25 15.3 1.56 15.87 2.13C16.44 2.7 16.75 3.45 16.75 4.25C16.75 5.9 15.4 7.25 13.75 7.25ZM10.25 2.75C9.42 2.75 8.75 3.42 8.75 4.25C8.75 4.65 8.91 5.03 9.19 5.31C9.47 5.59 9.85 5.75 10.25 5.75H13.75C14.58 5.75 15.25 5.08 15.25 4.25C15.25 3.85 15.09 3.47 14.81 3.19C14.53 2.91 14.15 2.75 13.75 2.75H10.25Z" fill="#292D32"/>
<path d="M12 13.75H8C7.59 13.75 7.25 13.41 7.25 13C7.25 12.59 7.59 12.25 8 12.25H12C12.41 12.25 12.75 12.59 12.75 13C12.75 13.41 12.41 13.75 12 13.75Z" fill="#292D32"/>
<path d="M16 17.75H8C7.59 17.75 7.25 17.41 7.25 17C7.25 16.59 7.59 16.25 8 16.25H16C16.41 16.25 16.75 16.59 16.75 17C16.75 17.41 16.41 17.75 16 17.75Z" fill="#292D32"/>
</svg>
